X:5892
T:Scottish à Olivier Durif
O:england
M:2/4
L:1/16
K:G
GABc dGAB|cdef g4|agfe decd|\
BcAc B2G2|GABc dGAB|cdef g4|
agfe decd|BcAB G4::gfge c2cB|\
cBcd e2ed|efga gfed|
ecec e2d2|gfge c2cB|cBcd e2d2|\
efga gfed|ecec d4:|


